static/images/mobile/copyright/wikipedia-wordmark-ckb.svg

<?xml version="1.0" encoding="UTF-8"?>
<svg width="84px" height="32px" viewBox="0 0 84 32" version="1.1" xmlns="http://www.w3.org/2000/svg" xmlns:xlink="http://www.w3.org/1999/xlink">
    <title>wikipedia-wordmark-ckb</title>
    <g id="Page-1" stroke="none" stroke-width="1" fill="none" fill-rule="evenodd">
        <path d="M78.8977357,17.1970794 C79.5391702,15.408259 80.2980586,14.522891 81.1744122,14.5409531 C81.6984038,14.5409531 82.1907781,14.9091127 82.6515354,15.6454095 C83.1122927,16.3817175 83.4059056,17.2106344 83.5323962,18.1321378 C83.6588647,19.0536524 83.5166321,20.3320251 83.1055208,21.9672561 C82.6944428,23.6024871 81.8813456,25.1112385 80.6662182,26.4935103 C79.4510908,27.875771 78.4753675,28.6098254 77.7390651,28.6956512 C77.002756,28.7814659 76.0292963,28.7227389 74.8186839,28.5194813 C73.6080703,28.3162014 72.7226956,28.097113 72.1625598,27.8622272 C71.9638038,27.7808531 71.8779769,27.6725023 71.9050779,27.5369861 C71.9321878,27.4014699 72.0496308,27.3472612 72.2574211,27.3743711 C73.7119661,27.5550483 75.085199,27.4963324 76.3771245,27.1981901 C77.1631174,27.0175018 78.2946792,26.2789402 79.7718135,24.9825053 C81.2489367,23.6860593 82.1275328,22.599665 82.4076129,21.7233225 C82.3172466,20.964434 82.204322,20.5443305 82.0688169,20.463023 C81.3731627,21.538127 80.4810116,21.8001228 79.3923637,21.2490214 C78.3037159,20.69792 78.1388362,19.3472763 78.8977357,17.1970794 L78.8977357,17.1970794 Z M81.4047909,18.2405552 C80.8717516,17.3732493 80.2980586,17.3325956 79.683723,18.1185829 C80.1535169,18.6425855 80.7271988,18.6832392 81.4047909,18.2405552 Z M67.1348957,16.7227672 L67.9208918,15.0017104 C68.083509,14.6493705 68.2551629,14.6448522 68.4358545,14.9881666 C69.1676408,16.334303 69.303157,17.9604973 68.8424042,19.8667606 C68.3997135,21.6826799 67.2794452,22.5906395 65.4815937,22.5906395 C65.2828366,22.5906395 65.0885967,22.1208567 64.8988729,21.1812688 C64.7543223,20.431417 64.9485633,20.0655222 65.4815937,20.0835843 C66.5747599,20.1287675 67.3968925,19.8351435 67.9479951,19.2027346 C67.9750939,19.1665437 67.9796122,19.1033761 67.96155,19.0130097 C67.8531326,18.4799816 67.6046874,17.9424351 67.2162087,17.4003592 C67.0535882,17.17451 67.0264849,16.9486497 67.1349012,16.7227783 L67.1348957,16.7227672 Z M69.6148487,25.7075119 C69.6600208,25.635237 69.7368088,25.6171456 69.8452262,25.6533365 C70.5770115,25.9062957 71.2320064,26.2902638 71.8102166,26.8052297 C71.8915241,26.8775006 71.9050679,26.9588081 71.8508703,27.0491633 L70.5228083,29.1496699 C70.4685996,29.230933 70.3782521,29.2173891 70.2517748,29.1090383 C70.134323,29.0096798 69.6103259,28.6798871 68.6797836,28.1197601 L67.6363056,29.7730644 C67.5820969,29.8543275 67.4894947,29.8407836 67.3584968,29.7324328 C67.2274956,29.623971 66.579276,29.2174668 65.4138345,28.5127871 C65.3415636,28.4676039 65.3280087,28.4134285 65.3731807,28.350161 L66.728346,26.3309619 C66.7735181,26.2586911 66.8503095,26.2405956 66.9587246,26.2767865 C67.5640292,26.4845736 68.1196467,26.7872231 68.6255783,27.1847461 L69.6148487,25.7075119 Z M48.9621274,20.0700294 C49.0072995,20.0700294 49.2060577,20.0925655 49.5584009,20.1377486 C49.910743,20.1829318 50.4957218,20.2054679 51.3133395,20.2054679 C52.1309528,20.2054679 53.0185855,20.0225149 53.9762399,19.6566201 C54.9338844,19.2907363 55.7243966,18.7464068 56.3477789,18.0236427 C55.9141193,16.3522874 54.0033387,14.7215748 50.6154294,13.1315048 C50.2359819,12.8785456 50.0010871,12.2687172 49.910743,11.3020306 C49.8294355,10.2179121 49.924298,9.48612248 50.1953281,9.1066616 C52.3364862,6.0620711 57.0072855,3.05812325 64.2077381,0.0948069384 C64.3613087,0.0316393178 64.4877905,0 64.5871846,0 C64.758824,0 64.8401337,0.0949179535 64.8311148,0.284587338 C64.8310993,0.365961443 64.8220116,0.447235635 64.804016,0.528520928 L64.3974663,2.29023145 C64.3432465,2.51611398 64.1986937,2.6877656 63.9638134,2.80519743 C57.5312859,5.96726416 53.2083126,8.61435381 50.9948803,10.7464664 C54.7712694,12.6617775 58.0010765,14.8390732 60.6843126,17.2783647 C62.6176692,19.0400863 64.1986937,19.979663 65.4273916,20.097106 C65.8700623,20.1422891 66.0914232,20.4223471 66.0914232,20.937313 C66.0914232,21.2354442 66.0259021,21.5900488 65.8949242,22.0011157 C65.7639085,22.4121826 65.6080644,22.6131977 65.4273916,22.6041611 C64.1535217,22.6041611 62.220154,21.32127 59.6272841,18.7554879 C58.7690027,17.9062553 57.8836291,17.1428485 56.97116,16.4652675 C57.0253576,17.2060938 57.0072955,17.8972298 56.9169513,18.5386642 C56.5013595,21.3574166 54.3376142,22.7667872 50.425709,22.7667872 C49.7842635,22.7667872 49.2783352,22.7238243 48.9079232,22.6380429 C48.5375123,22.5522282 48.3523057,21.9853072 48.3523057,20.937313 C48.3523057,20.3591128 48.5555811,20.0700072 48.9621297,20.0700072 L48.9621274,20.0700294 Z M43.9615677,22.5906284 C43.7989482,22.5817472 43.6814998,22.4415683 43.6092245,22.1705359 L43.2568812,20.964434 C43.1032973,20.3500984 43.3381887,20.0564744 43.9615677,20.0835732 C44.819838,20.1287564 45.6781083,20.1512925 46.536382,20.1512925 C47.3946501,20.1512925 48.2529205,20.1287564 49.1111964,20.0835732 C49.7345664,20.0564855 49.9694611,20.3500984 49.8158817,20.964434 L49.4635385,22.1705359 C49.3912565,22.4415683 49.2738102,22.5816028 49.1111964,22.5906284 C48.2529205,22.6448038 47.3946501,22.6720025 46.536382,22.6720025 C45.6781083,22.6720025 44.819838,22.6449148 43.9615677,22.5906284 Z M43.9615677,20.0835732 C44.268731,20.1558441 44.4403849,20.2642726 44.4765303,20.4088143 C44.5126546,20.5533671 44.5126546,20.7701908 44.4765303,21.0592965 C44.3410063,22.0801918 44.1693525,22.5906284 43.9615677,22.5906284 C42.9677734,22.5995096 41.9649524,22.0395381 40.9531004,20.9102253 C40.1309633,21.9130474 38.8751788,22.4731854 37.1857402,22.5906284 C37.0140864,22.5995096 36.896639,22.4596305 36.833397,22.1705359 L36.5894678,21.0186427 C36.5442958,20.8289178 36.5826959,20.6301674 36.7046572,20.4223693 C36.8266217,20.2145822 36.9869831,20.1016465 37.1857402,20.0835732 C39.2455897,19.9299949 40.6188227,19.3246848 41.3054436,18.267654 C41.4048133,18.1140756 41.5312995,18.0372754 41.6848901,18.0372754 C41.8384706,18.0372754 41.9220384,18.1230901 41.9355956,18.2947639 C41.9491394,18.4664155 41.9694663,18.5793512 41.9965762,18.6335488 C42.6018785,19.4647193 43.2568746,19.9480681 43.9615666,20.0835732 L43.9615677,20.0835732 Z M41.8610611,24.35235 C41.9062332,24.280075 41.9830212,24.2619837 42.0914386,24.2981746 C42.8232228,24.5511337 43.4782188,24.9351018 44.056429,25.4500678 C44.1377365,25.5223387 44.1512803,25.6036462 44.0970828,25.6939903 L42.7690207,27.7944968 C42.714812,27.8757599 42.6244646,27.8622161 42.4979872,27.7538653 C42.3805343,27.6545067 41.8565384,27.3247251 40.925996,26.7645982 L39.882518,28.4179024 C39.8283093,28.4991655 39.735706,28.4856217 39.6047093,28.3772709 C39.4737081,28.2688091 38.8254873,27.8622938 37.6600469,27.157614 C37.587776,27.1124309 37.5742211,27.0582555 37.6193931,26.994999 L38.9745584,24.9758 C39.0197305,24.9035291 39.0965219,24.8854336 39.204937,24.9216246 C39.8102416,25.1294227 40.3658591,25.4320722 40.8717907,25.8295842 L41.8610611,24.35235 Z M32.8627625,14.0530859 C32.8356526,13.890482 32.9214784,13.6149313 33.1202444,13.2264449 C33.3189993,12.8379696 33.4635499,12.5895177 33.5538973,12.4811003 C33.7345822,12.2823499 33.8655812,12.3726385 33.9468954,12.7521327 C34.0282029,13.1315825 34.1727524,13.8091746 34.3805483,14.7848756 C34.8413001,16.9531458 35.1981594,18.3083189 35.4511285,18.8503725 C35.8034661,19.5911988 36.3816697,20.0022657 37.1857402,20.0835732 C37.4025595,20.1016687 37.56518,20.2145822 37.6735996,20.4223693 C37.7820059,20.6301674 37.8000747,20.905707 37.7278083,21.2490214 C37.5651822,22.1524627 37.3844928,22.599665 37.1857424,22.5906284 C35.6137457,22.5544374 34.5160623,21.3755009 33.8926911,19.0536524 C33.8565446,18.963286 33.8249275,18.9588454 33.7978287,19.0401085 C32.9847271,21.2625874 31.8554244,22.4460977 30.4099161,22.5906395 C30.2382611,22.6087349 30.1162965,22.4980528 30.0440212,22.2586265 C29.9717504,22.0192112 29.8904362,21.6013724 29.800091,21.0050989 C29.7097468,20.4088254 29.9130222,20.1016576 30.4099161,20.0835843 C31.9548029,20.0203057 33.0344164,19.4556937 33.6487609,18.3896264 C33.6848963,18.3263477 33.6329523,18.0169707 33.4929167,17.4613399 C33.35288,16.9057312 33.1428293,15.7696466 32.8627647,14.053097 L32.8627625,14.0530859 Z M35.2614058,31.9277241 C35.2162337,31.9999991 35.1394357,32.0180904 35.0310272,31.9818995 C34.2992342,31.7289182 33.6442381,31.3449612 33.0660379,30.8300063 C32.9847193,30.7577354 32.9711755,30.6764168 33.0253842,30.5860727 L34.3534462,28.4855662 C34.4076438,28.4043031 34.5002515,28.4178469 34.6312549,28.5261977 C34.7622495,28.6346595 35.4104703,29.0411637 36.5759173,29.7458545 C36.6481882,29.7910377 36.6617431,29.8452131 36.6165711,29.9084695 L35.2614058,31.9277241 Z M33.3506219,29.0412192 C33.3054499,29.1134942 33.228654,29.1315855 33.1202444,29.0953946 C32.3884525,28.8424244 31.7334565,28.4584563 31.155254,27.9435014 C31.0739465,27.8712305 31.0603916,27.7899119 31.1146003,27.6995678 L32.4426623,25.5990723 C32.496871,25.5176982 32.5872118,25.5313531 32.7136958,25.6397039 C32.8221021,25.7300702 33.2783455,26.0191426 34.0824127,26.5070097 L35.0581315,24.9621118 C35.1123291,24.8808487 35.2049368,24.8943926 35.3359403,25.0027433 C35.4669348,25.1112052 36.1151556,25.5176982 37.2806026,26.2223891 C37.3528735,26.2675723 37.3664285,26.3217477 37.3212564,26.3850041 L35.9660911,28.4042032 C35.9209191,28.476474 35.844121,28.4945695 35.7357136,28.4583785 C35.2026766,28.2776792 34.7103011,28.0247201 34.2585826,27.699479 L33.3506219,29.0412192 Z M30.4099138,20.0835732 C30.7170772,20.1558441 30.8887311,20.2642726 30.9248765,20.4088143 C30.9610008,20.5533671 30.9610008,20.7701908 30.9248765,21.0592965 C30.7893525,22.0801918 30.6176987,22.5906284 30.4099138,22.5906284 C29.4161195,22.5995096 28.4132986,22.0395381 27.4014466,20.9102253 C26.5793094,21.9130474 25.3235238,22.4731854 23.6340864,22.5906284 C23.4624325,22.5995096 23.3449841,22.4596305 23.2817432,22.1705359 L23.037814,21.0186427 C22.992642,20.8289178 23.0310421,20.6301674 23.1530022,20.4223693 C23.2749679,20.2145822 23.4353293,20.1016465 23.6340864,20.0835732 C25.6939359,19.9299949 27.0671689,19.3246848 27.7537887,18.267654 C27.8531583,18.1140756 27.9796457,18.0372754 28.1332351,18.0372754 C28.2868157,18.0372754 28.3703846,18.1230901 28.3839406,18.2947639 C28.3974845,18.4664155 28.4178114,18.5793512 28.4449213,18.6335488 C29.0502225,19.4647193 29.7052185,19.9480681 30.4099116,20.0835732 L30.4099138,20.0835732 Z M28.3094073,24.35235 C28.3545794,24.280075 28.4313674,24.2619837 28.5397848,24.2981746 C29.2715689,24.5511337 29.926565,24.9351018 30.5047752,25.4500678 C30.5860827,25.5223387 30.5996265,25.6036462 30.5454289,25.6939903 L29.2173669,27.7944968 C29.1631582,27.8757599 29.0728107,27.8622161 28.9463334,27.7538653 C28.8288805,27.6545067 28.3048834,27.3247251 27.3743422,26.7645982 L26.3308642,28.4179024 C26.2766555,28.4991655 26.1840522,28.4856217 26.0530554,28.3772709 C25.9220542,28.2688091 25.2738334,27.8622938 24.1083931,27.157614 C24.0361222,27.1124309 24.0225673,27.0582555 24.0677393,26.994999 L25.4229046,24.9758 C25.4680767,24.9035291 25.5448681,24.8854336 25.6532832,24.9216246 C26.2585878,25.1294227 26.8142042,25.4320722 27.3201357,25.8295842 L28.3094073,24.35235 Z M23.647638,20.0835732 C23.9276926,20.1558441 24.1128981,20.4020424 24.2032555,20.8221459 C24.2935885,21.2422495 24.2822983,21.6442797 24.1693737,22.0282367 C24.0564291,22.4122048 23.8825161,22.599665 23.6476347,22.5906284 C22.4279734,22.5183575 21.6013235,21.5064988 21.1676817,19.5550634 C21.0321544,18.9407278 20.9598791,18.6290416 20.9508558,18.6199939 C20.896636,18.4754522 20.8424273,18.4844888 20.7882352,18.6470816 C20.2100217,20.2100417 19.4691987,21.1767283 18.5657641,21.5471304 C17.4183836,22.0078876 15.8599452,22.175032 13.8904432,22.0485414 C12.3545874,21.9491828 11.9615905,20.7295149 12.7114501,18.389593 C12.7927576,18.1366339 12.9282738,17.9920922 13.1179998,17.9559457 C13.3077202,17.9197547 13.4387192,18.0417604 13.5109978,18.3218405 C13.6645795,18.8548797 13.9175431,19.1620476 14.2698896,19.2433551 C16.0406334,19.6228048 17.6532795,19.5234241 19.10783,18.9452128 C19.8305763,18.6561182 20.304883,18.1456706 20.5307544,17.4138809 C20.5668788,17.2874013 20.4426639,16.2890976 20.1580832,14.4189586 C19.8734892,12.5488418 19.7086118,11.4082499 19.6634486,10.9971719 C19.6182654,10.5861161 19.6453753,10.2721653 19.7447561,10.0553305 C20.0519172,9.41389602 20.2642259,8.94411321 20.3816833,8.64595982 C20.4358809,8.51045473 20.5330003,8.45172772 20.6730448,8.46978988 C20.8130682,8.48788535 20.8921187,8.57825168 20.9101987,8.74082227 C21.3619093,12.625642 21.8542859,15.719934 22.3873285,18.0236982 C22.6673842,19.2523917 23.0874844,19.9390093 23.6476325,20.083551 L23.647638,20.0835732 Z M6.91134475,16.7227672 L7.69734089,15.0017104 C7.8599581,14.6493705 8.03161195,14.6448522 8.21230354,14.9881666 C8.94408988,16.334303 9.07960607,17.9604973 8.61885323,19.8667606 C8.17616367,21.6826799 7.05589424,22.5906395 5.25804385,22.5906395 C5.05928565,22.5906395 4.86504577,22.1208567 4.67532199,21.1812688 C4.53077139,20.431417 4.72501237,20.0655222 5.25804385,20.0835843 C6.35120892,20.1287675 7.17334161,19.8351435 7.72444413,19.2027346 C7.75154293,19.1665437 7.75606124,19.1033761 7.73799908,19.0130097 C7.62958168,18.4799816 7.38113644,17.9424351 6.9926589,17.4003592 C6.83003725,17.17451 6.80293401,16.9486497 6.91135141,16.7227783 L6.91134475,16.7227672 Z M9.39129776,25.7075119 C9.43646982,25.635237 9.51325789,25.6171456 9.6216764,25.6533365 C10.3534605,25.9062957 11.0084566,26.2902638 11.5866657,26.8052297 C11.6679731,26.8775006 11.681517,26.9588081 11.6273194,27.0491633 L10.2992574,29.1496699 C10.2450487,29.230933 10.1547012,29.2173891 10.028225,29.1090383 C9.91077206,29.0096798 9.386775,28.6798871 8.45623269,28.1197601 L7.41275466,29.7730644 C7.35854597,29.8543275 7.26594379,29.8407836 7.13494591,29.7324328 C7.0039447,29.623971 6.35572502,29.2174668 5.19028353,28.5127871 C5.11801267,28.4676039 5.10445772,28.4134285 5.14962978,28.350161 L6.50479505,26.3309619 C6.54996712,26.2586911 6.62675852,26.2405956 6.73517369,26.2767865 C7.34047825,26.4845736 7.89609576,26.7872231 8.40202732,27.1847461 L9.39129776,25.7075119 Z M0.989272634,2.60193979 C1.1880275,2.27672091 1.3280609,2.41675542 1.40937395,3.02204332 C1.75267942,5.88597887 1.97402253,8.33882531 2.07340441,10.3805938 C2.26312486,14.2383036 2.38960664,16.5646705 2.45285086,17.3596944 C2.58836372,19.076244 3.51439216,19.9842036 5.2309395,20.0835732 C5.70975783,20.1106609 5.89496441,20.4494792 5.78655811,21.0999502 C5.6148965,22.0937357 5.42969103,22.5906284 5.2309395,22.5906284 C2.80067243,22.5906284 1.49971474,21.4658451 1.32806312,19.2162674 C1.18351029,17.3190406 1.08413175,15.4105237 1.02992749,13.4906943 C0.975718794,11.5708871 0.865046681,10.0169747 0.697911152,8.82892389 C0.530773402,7.64091746 0.307171127,6.28349081 0.0271043261,4.75665505 C-0.0271043718,4.45853496 1.0050652e-06,4.21913079 0.108411822,4.03842033 L0.989272634,2.60193979 Z" id="wikipedia-wordmark-ckb" fill="#000000" fill-rule="nonzero"></path>
    </g>
</svg>

<svg xmlns="http://www.w3.org/2000/svg" width="84" height="32"><path fill="#000" fill-rule="nonzero" d="M78.898 17.197c.641-1.789 1.4-2.674 2.276-2.656.524 0 1.017.368 1.478 1.104.46.737.754 1.566.88 2.487.127.922-.015 2.2-.426 3.835-.412 1.635-1.225 3.144-2.44 4.527-1.215 1.382-2.19 2.116-2.927 2.202-.736.085-1.71.027-2.92-.177-1.21-.203-2.096-.422-2.656-.657-.2-.081-.285-.19-.258-.325.027-.136.145-.19.352-.163 1.455.181 2.828.122 4.12-.176.786-.18 1.918-.92 3.395-2.215 1.477-1.297 2.356-2.383 2.636-3.26-.09-.759-.204-1.179-.34-1.26-.695 1.075-1.587 1.337-2.676.786-1.088-.551-1.253-1.902-.494-4.052Zm2.507 1.044c-.533-.868-1.107-.908-1.721-.122.47.524 1.043.564 1.72.122Zm-14.27-1.518.786-1.721c.163-.353.334-.357.515-.014.732 1.346.867 2.972.406 4.879-.442 1.816-1.563 2.724-3.36 2.724-.2 0-.393-.47-.583-1.41-.145-.75.05-1.115.583-1.097 1.093.045 1.915-.249 2.466-.881.027-.036.032-.1.014-.19-.109-.533-.357-1.07-.746-1.613-.162-.225-.19-.451-.081-.677Zm2.48 8.985c.045-.073.122-.09.23-.055a5.751 5.751 0 0 1 1.965 1.152c.082.073.095.154.04.244l-1.327 2.1c-.054.082-.145.068-.271-.04-.118-.1-.642-.43-1.572-.99l-1.044 1.654c-.054.081-.147.068-.278-.04-.13-.109-.779-.516-1.944-1.22-.072-.045-.086-.1-.04-.163l1.354-2.019c.046-.072.122-.09.23-.054.606.208 1.162.51 1.668.908l.989-1.477ZM48.962 20.07c.045 0 .244.023.596.068.353.045.938.067 1.755.067.818 0 1.706-.182 2.663-.548.958-.366 1.748-.91 2.372-1.633-.434-1.672-2.345-3.302-5.733-4.892-.379-.253-.614-.863-.704-1.83-.082-1.084.013-1.816.284-2.195 2.141-3.045 6.812-6.049 14.013-9.012a1.05 1.05 0 0 1 .38-.095c.17 0 .252.095.243.285 0 .081-.009.162-.027.244l-.407 1.761c-.054.226-.198.398-.433.515-6.433 3.162-10.756 5.81-12.97 7.941 3.777 1.916 7.007 4.093 9.69 6.532 1.934 1.762 3.515 2.702 4.743 2.82.443.044.664.324.664.84 0 .297-.065.652-.196 1.063-.131.411-.287.612-.468.603-1.273 0-3.207-1.283-5.8-3.849a24.816 24.816 0 0 0-2.656-2.29c.054.741.036 1.432-.054 2.074-.416 2.818-2.58 4.228-6.491 4.228-.642 0-1.148-.043-1.518-.129-.37-.086-.556-.653-.556-1.7 0-.579.204-.868.61-.868Zm-5 2.52c-.163-.008-.28-.148-.353-.42l-.352-1.206c-.154-.614.081-.908.705-.88a48.969 48.969 0 0 0 5.15 0c.623-.028.857.266.704.88l-.352 1.207c-.073.27-.19.41-.353.42a40.863 40.863 0 0 1-5.15 0Zm0-2.506c.307.072.478.18.515.325.036.144.036.361 0 .65-.136 1.021-.308 1.532-.515 1.532-.994.009-1.997-.551-3.009-1.68-.822 1.002-2.078 1.562-3.767 1.68-.172.009-.29-.131-.353-.42l-.244-1.152c-.045-.19-.006-.389.116-.597.122-.207.282-.32.48-.338 2.06-.154 3.434-.76 4.12-1.816.1-.154.226-.23.38-.23.153 0 .237.085.25.257.014.171.034.284.062.339.605.83 1.26 1.314 1.965 1.45Zm-2.1 4.268c.044-.072.121-.09.23-.054a5.751 5.751 0 0 1 1.964 1.152c.082.072.095.154.041.244l-1.328 2.1c-.054.082-.145.068-.271-.04-.117-.1-.641-.43-1.572-.99l-1.043 1.654c-.055.081-.147.068-.278-.04-.131-.11-.78-.516-1.945-1.22-.072-.046-.086-.1-.04-.163l1.355-2.02c.045-.071.122-.09.23-.053.605.207 1.16.51 1.667.908l.99-1.478Zm-9-10.299c-.026-.163.06-.438.258-.827.199-.388.344-.636.434-.745.18-.199.312-.108.393.271l.434 2.033c.46 2.168.817 3.523 1.07 4.065.352.741.93 1.152 1.735 1.234a.58.58 0 0 1 .488.338c.108.208.126.484.054.827-.163.903-.344 1.35-.542 1.342-1.572-.037-2.67-1.215-3.293-3.537-.036-.09-.068-.095-.095-.014-.813 2.223-1.943 3.406-3.388 3.55-.172.019-.294-.092-.366-.331-.072-.24-.154-.658-.244-1.254s.113-.903.61-.921c1.545-.064 2.624-.628 3.239-1.694.036-.064-.016-.373-.156-.929-.14-.555-.35-1.691-.63-3.408Zm2.4 17.875c-.046.072-.123.09-.231.054a5.752 5.752 0 0 1-1.965-1.152c-.081-.072-.095-.154-.04-.244l1.327-2.1c.055-.082.147-.068.278.04.131.109.78.515 1.945 1.22.072.045.086.1.04.162l-1.355 2.02ZM33.35 29.04c-.046.072-.122.09-.23.054a5.751 5.751 0 0 1-1.966-1.151c-.081-.073-.095-.154-.04-.244l1.328-2.1c.054-.082.144-.069.27.04.11.09.565.38 1.37.867l.975-1.545c.054-.081.147-.068.278.04.13.11.78.516 1.945 1.22.072.046.085.1.04.163l-1.355 2.02c-.045.071-.122.09-.23.053a5.578 5.578 0 0 1-1.477-.759l-.908 1.342Zm-2.941-8.957c.307.072.479.18.515.325.036.144.036.361 0 .65-.136 1.021-.307 1.532-.515 1.532-.994.009-1.997-.551-3.009-1.68-.822 1.002-2.077 1.562-3.767 1.68-.172.009-.289-.131-.352-.42l-.244-1.152c-.045-.19-.007-.389.115-.597.122-.207.282-.32.481-.338 2.06-.154 3.433-.76 4.12-1.816.1-.154.226-.23.38-.23.153 0 .236.085.25.257.013.171.034.284.06.339.606.83 1.261 1.314 1.966 1.45Zm-2.1 4.268c.045-.072.121-.09.23-.054a5.751 5.751 0 0 1 1.965 1.152c.081.072.095.154.04.244l-1.328 2.1c-.054.082-.144.068-.27-.04-.118-.1-.642-.43-1.573-.99l-1.043 1.654c-.054.081-.147.068-.278-.04-.13-.11-.78-.516-1.945-1.22-.072-.046-.085-.1-.04-.163l1.355-2.02c.045-.071.122-.09.23-.053.606.207 1.161.51 1.667.908l.99-1.478Zm-4.662-4.268c.28.072.465.318.555.738.09.42.08.822-.034 1.206-.113.384-.286.572-.521.563-1.22-.073-2.047-1.085-2.48-3.036-.136-.614-.208-.926-.217-.935-.054-.145-.109-.136-.163.027-.578 1.563-1.319 2.53-2.222 2.9-1.148.46-2.706.628-4.676.502-1.535-.1-1.928-1.32-1.179-3.66.082-.252.217-.397.407-.433.19-.036.32.086.393.366.154.533.407.84.759.921 1.77.38 3.383.28 4.838-.298.723-.289 1.197-.8 1.423-1.531.036-.127-.088-1.125-.373-2.995-.285-1.87-.45-3.01-.495-3.422-.045-.41-.018-.725.082-.942.307-.641.52-1.11.637-1.409.054-.136.151-.194.291-.176.14.018.22.108.237.27.452 3.886.944 6.98 1.477 9.284.28 1.228.7 1.915 1.26 2.06ZM6.91 16.723l.786-1.721c.163-.353.335-.357.515-.014.732 1.346.868 2.972.407 4.879-.443 1.816-1.563 2.724-3.361 2.724-.199 0-.393-.47-.583-1.41-.144-.75.05-1.115.583-1.097 1.093.045 1.915-.249 2.466-.881.028-.036.032-.1.014-.19-.108-.533-.357-1.07-.745-1.613-.163-.225-.19-.451-.082-.677Zm2.48 8.985c.045-.073.122-.09.23-.055a5.751 5.751 0 0 1 1.966 1.152c.081.073.095.154.04.244l-1.328 2.1c-.054.082-.144.068-.27-.04-.118-.1-.642-.43-1.573-.99l-1.043 1.654c-.054.081-.147.068-.278-.04-.131-.109-.78-.516-1.945-1.22-.072-.045-.086-.1-.04-.163l1.355-2.019c.045-.072.122-.09.23-.054.605.208 1.161.51 1.667.908l.99-1.477ZM.99 2.602c.199-.325.34-.185.42.42.344 2.864.565 5.317.664 7.359.19 3.857.317 6.184.38 6.979.135 1.716 1.061 2.624 2.778 2.724.479.027.664.365.556 1.016-.172.994-.357 1.49-.556 1.49-2.43 0-3.731-1.124-3.903-3.374a119.894 119.894 0 0 1-.298-5.725C.976 11.57.865 10.017.698 8.829.53 7.64.308 6.283.028 4.757c-.055-.298-.028-.538.08-.719L.99 2.602Z"/></svg>
